X: 15138
T: Gigue à Deux
R: reel
M: 4/4
K: Amajor
Azce aecd|efed (3cdc BE|AzEA AAcA|
Azce aecd|efed (3cdc BE|AzEE EFAB|
BGEG B2B2|EFAB cAdc|1 BGBG AzEE:|2 BGBG AzEA||

